svg/weather/na_line.svg

<?xml version="1.0" encoding="UTF-8"?>
<svg width="24px" height="24px" viewBox="0 0 24 24" version="1.1" xmlns="http://www.w3.org/2000/svg" xmlns:xlink="http://www.w3.org/1999/xlink">
    <title>na_line</title>
    <g id="Icon" stroke="none" stroke-width="1" fill="none" fill-rule="evenodd">
        <g id="Weather" transform="translate(-625.000000, -96.000000)">
            <g id="na_line" transform="translate(625.000000, 96.000000)">
                <path d="M24,0 L24,24 L0,24 L0,0 L24,0 Z M12.5935,23.2578 L12.5819,23.2595 L12.5109,23.295 L12.4919,23.2987 L12.4767,23.295 L12.4057,23.2595 C12.3958,23.2564 12.387,23.259 12.3821,23.2649 L12.378,23.2758 L12.3609,23.7031 L12.3659,23.7235 L12.3769,23.7357 L12.4805,23.8097 L12.4953,23.8136 L12.5071,23.8097 L12.6107,23.7357 L12.6233,23.7197 L12.6267,23.7031 L12.6096,23.2758 C12.6076,23.2657 12.601,23.2593 12.5935,23.2578 Z M12.8584,23.1453 L12.8445,23.1473 L12.6598,23.2397 L12.6499,23.2499 L12.6472,23.2611 L12.6651,23.6906 L12.6699,23.7034 L12.6784,23.7105 L12.8793,23.8032 C12.8914,23.8069 12.9022,23.803 12.9078,23.7952 L12.9118,23.7812 L12.8777,23.1665 C12.8753,23.1546 12.8674,23.147 12.8584,23.1453 Z M12.143,23.1473 C12.1332,23.1424 12.1222,23.1453 12.1156,23.1526 L12.1099,23.1665 L12.0758,23.7812 C12.0751,23.7927 12.0828,23.8019 12.0926,23.8046 L12.1083,23.8032 L12.3092,23.7105 L12.3186,23.7024 L12.3225,23.6906 L12.3404,23.2611 L12.3372,23.2485 L12.3278,23.2397 L12.143,23.1473 Z" id="MingCute" fill-rule="nonzero"></path>
                <path d="M2,6 C2,5.44772 2.44772,5 3,5 L3.5,5 C3.85886,5 4.1902,5.19229 4.36824,5.50386 L7,10.1094 L7,6 C7,5.44772 7.44772,5 8,5 C8.55228,5 9,5.44772 9,6 L9,13 C9,13.5523 8.55228,14 8,14 L7.5,14 C7.14114,14 6.8098,13.8077 6.63176,13.4961 L4,8.89056 L4,13 C4,13.5523 3.55228,14 3,14 C2.44772,14 2,13.5523 2,13 L2,6 Z M14.9472,7.10557 C15.4412,7.35256 15.6414,7.95324 15.3944,8.44721 L11.3944,16.4472 C11.1474,16.9412 10.5468,17.1414 10.0528,16.8944 C9.55881,16.6474 9.35858,16.0468 9.60557,15.5528 L13.6056,7.55279 C13.8526,7.05881 14.4532,6.85858 14.9472,7.10557 Z M16.5541,10.6757 C16.6926,10.2715 17.0727,10 17.5,10 L18.5,10 C18.9273,10 19.3074,10.2715 19.4459,10.6757 L21.1531,15.6548 L21.9308,17.6343 C22.1327,18.1484 21.8797,18.7288 21.3657,18.9308 C20.8516,19.1327 20.2712,18.8797 20.0692,18.3657 L19.5327,17 L16.4673,17 L15.9308,18.3657 C15.7288,18.8797 15.1484,19.1327 14.6343,18.9308 C14.1203,18.7288 13.8673,18.1484 14.0692,17.6343 L14.8469,15.6548 L16.5541,10.6757 Z M17.1857,15 L18.8143,15 L18,12.625 L17.1857,15 Z" id="形状" fill="#09244B"></path>
            </g>
        </g>
    </g>
</svg>

<svg xmlns="http://www.w3.org/2000/svg" width="24" height="24"><g fill="none" fill-rule="evenodd"><path d="M24 0v24H0V0h24ZM12.594 23.258l-.012.002-.071.035-.02.004-.014-.004-.071-.036c-.01-.003-.019 0-.024.006l-.004.01-.017.428.005.02.01.013.104.074.015.004.012-.004.104-.074.012-.016.004-.017-.017-.427c-.002-.01-.009-.017-.016-.018Zm.264-.113-.014.002-.184.093-.01.01-.003.011.018.43.005.012.008.008.201.092c.012.004.023 0 .029-.008l.004-.014-.034-.614c-.003-.012-.01-.02-.02-.022Zm-.715.002a.023.023 0 0 0-.027.006l-.006.014-.034.614c0 .012.007.02.017.024l.015-.002.201-.093.01-.008.003-.011.018-.43-.003-.012-.01-.01-.184-.092Z"/><path fill="#09244B" d="M2 6a1 1 0 0 1 1-1h.5a1 1 0 0 1 .868.504L7 10.109V6a1 1 0 0 1 2 0v7a1 1 0 0 1-1 1h-.5a1 1 0 0 1-.868-.504L4 8.891V13a1 1 0 1 1-2 0V6Zm12.947 1.106a1 1 0 0 1 .447 1.341l-4 8a1 1 0 1 1-1.788-.894l4-8a1 1 0 0 1 1.341-.447Zm1.607 3.57A1 1 0 0 1 17.5 10h1a1 1 0 0 1 .946.676l1.707 4.979.778 1.98a1 1 0 0 1-1.862.73L19.533 17h-3.066l-.536 1.366a1 1 0 0 1-1.862-.732l.778-1.98 1.707-4.978ZM17.186 15h1.628L18 12.625 17.186 15Z"/></g></svg>
